//https://www.youtube.com/watch?v=6qim01M1Yp0 11:20
shader_type spatial;

uniform float height = 64.0;

void vertex() {
	// Called for every vertex the material is visible on.
}

void fragment() {
	// Called for every pixel the material is visible on.
}

//void light() {
//	// Called for every pixel for every light affecting the material.
//	// Uncomment to replace the default light processing function with this one.
//}
